X: 32743
T: Polly's Fancy
R: jig
M: 6/8
K: Gmajor
|:B|edB dBA|B A/^A/B =AGE|DEG ADA|BDB ABd|
edB dBA|BGE GED|~G3 Adc|BGF ~G2:|
|:D|GBd g/a/g e|g/f/e d edB|G B/c/d edB|cBc AFD|
GBd g f/e/d|fed edB|dge f/g/a c'|baf ~g2:|

